src/actions/symbolic/object-blend-mode-normal-symbolic.svg

<svg width="16" height="16" version="1.1" viewBox="0 0 16 16" xmlns="http://www.w3.org/2000/svg">
 <path d="m8 1c-1.662 0-3 1.338-3 3v4c0 1.662 1.338 3 3 3h4c1.662 0 3-1.338 3-3v-4c0-1.662-1.338-3-3-3h-4zm0 1h4c1.108 0 2 0.892 2 2v4c0 1.108-0.892 2-2 2h-4c-1.108 0-2-0.892-2-2v-4c0-1.108 0.892-2 2-2z" fill="#363636" fill-rule="evenodd" stroke-linecap="round" stroke-linejoin="round" stroke-width="2" style="paint-order:stroke fill markers"/>
 <path d="m6 5v1a4 4 0 0 1 4 4h1a5 5 0 0 0-5-5z" fill="#363636" fill-rule="evenodd" opacity=".35" stroke-linecap="round" stroke-linejoin="round" stroke-width="2" style="paint-order:stroke fill markers"/>
 <path d="m4 5.4238a5 5 0 0 0-3 4.5762 5 5 0 0 0 5 5 5 5 0 0 0 4.5762-3h-1.125a4 4 0 0 1-3.4512 2 4 4 0 0 1-4-4 4 4 0 0 1 2-3.4512z" fill="#363636" fill-rule="evenodd" stroke-linecap="round" stroke-linejoin="round" stroke-width="2" style="paint-order:stroke fill markers"/>
</svg>

<svg xmlns="http://www.w3.org/2000/svg" width="16" height="16">
    <path fill="#050505" fill-opacity=".7" fill-rule="evenodd" d="M8 1C6.338 1 5 2.338 5 4v4c0 1.662 1.338 3 3 3h4c1.662 0 3-1.338 3-3V4c0-1.662-1.338-3-3-3H8zm0 1h4c1.108 0 2 .892 2 2v4c0 1.108-.892 2-2 2H8c-1.108 0-2-.892-2-2V4c0-1.108.892-2 2-2z" style="paint-order:stroke fill markers"/>
    <path fill="#050505" fill-opacity=".7" fill-rule="evenodd" d="M6 5v1a4 4 0 0 1 4 4h1a5 5 0 0 0-5-5z" opacity=".35" style="paint-order:stroke fill markers"/>
    <path fill="#050505" fill-opacity=".7" fill-rule="evenodd" d="M4 5.424A5 5 0 0 0 1 10a5 5 0 0 0 5 5 5 5 0 0 0 4.576-3H9.451A4 4 0 0 1 6 14a4 4 0 0 1-4-4 4 4 0 0 1 2-3.451z" style="paint-order:stroke fill markers"/>
</svg>
